X: 58
T: Lanagan's Ball
O: Ireland c.1860
R: jig
Z: 1997 by John Chambers <jc:trillian.mit.edu>
M: 6/8
L: 1/8
K: EDor
|: "Em"EFE G2A | B2A Bcd | "D"DED   F2G | AdB AFD \
| "Em"EFE G2A | B2A Bcd | edB "Am"=cBA | "Em"BEE E3 :|
B \
|: "Em"e2f gfe | "D"fag fed | "Em"e2f gfe | "Bm"fBB B2d \
| "Em"e2f gfe | "D"fag fed | "Em"edB "Am"=cBA | "Em"BEE E3 :|

%%sep 1 1 500

